icons/actions/16/run-build-install.svg

<?xml version="1.0"?>
<!-- Created with Inkscape (http://www.inkscape.org/) -->
<svg xmlns:dc="http://purl.org/dc/elements/1.1/" xmlns:cc="http://creativecommons.org/ns#" xmlns:rdf="http://www.w3.org/1999/02/22-rdf-syntax-ns#" xmlns:svg="http://www.w3.org/2000/svg" xmlns="http://www.w3.org/2000/svg" xmlns:sodipodi="http://sodipodi.sourceforge.net/DTD/sodipodi-0.dtd" xmlns:inkscape="http://www.inkscape.org/namespaces/inkscape" width="16" height="16" id="svg3049" version="1.1" inkscape:version="0.91+devel r" sodipodi:docname="run-build-install.svg" inkscape:export-filename="/home/uri/.kde/share/icons/NITRUX-KDE/16x16/actions/view-right-new.png" inkscape:export-xdpi="30" inkscape:export-ydpi="30" viewBox="0 0 16 16">
  <defs id="defs3051">
    <style type="text/css" id="current-color-scheme">
      .ColorScheme-Text {
        color:#4d4d4d;
      }
      .ColorScheme-Background {
        color:#eff0f1;
      }
      .ColorScheme-Highlight {
        color:#3daee9;
      }
      .ColorScheme-ViewText {
        color:#31363b;
      }
      .ColorScheme-ViewBackground {
        color:#fcfcfc;
      }
      .ColorScheme-ViewHover {
        color:#93cee9;
      }
      .ColorScheme-ViewFocus{
        color:#3daee9;
      }
      .ColorScheme-ButtonText {
        color:#31363b;
      }
      .ColorScheme-ButtonBackground {
        color:#eff0f1;
      }
      .ColorScheme-ButtonHover {
        color:#93cee9;
      }
      .ColorScheme-ButtonFocus{
        color:#3daee9;
      }
      </style>
  </defs>
  <sodipodi:namedview id="base" pagecolor="#ffffff" bordercolor="#666666" borderopacity="1.0" inkscape:pageopacity="0.0" inkscape:pageshadow="2" inkscape:zoom="69.0456" inkscape:cx="8.3551199" inkscape:cy="5.6155182" inkscape:document-units="px" inkscape:current-layer="layer1" showgrid="true" fit-margin-top="0" fit-margin-left="0" fit-margin-right="0" fit-margin-bottom="0" inkscape:window-width="2560" inkscape:window-height="964" inkscape:window-x="-4" inkscape:window-y="34" inkscape:window-maximized="1" inkscape:showpageshadow="false" borderlayer="true" inkscape:snap-bbox="true" inkscape:object-nodes="true">
    <inkscape:grid type="xygrid" id="grid4085"/>
    <sodipodi:guide position="2.0000044,14.00003" orientation="12,0" id="guide4075"/>
    <sodipodi:guide position="2.0000044,2.0000296" orientation="0,12" id="guide4077"/>
    <sodipodi:guide position="14.000004,2.0000296" orientation="-12,0" id="guide4079"/>
    <sodipodi:guide position="14.000004,14.00003" orientation="0,-12" id="guide4081"/>
  </sodipodi:namedview>
  <metadata id="metadata3054">
    <rdf:RDF>
      <cc:Work rdf:about="">
        <dc:format>image/svg+xml</dc:format>
        <dc:type rdf:resource="http://purl.org/dc/dcmitype/StillImage"/>
        <dc:title/>
      </cc:Work>
    </rdf:RDF>
  </metadata>
  <g inkscape:label="Capa 1" inkscape:groupmode="layer" id="layer1" transform="translate(-421.71429,-531.79074)">
    <path style="fill:currentColor;fill-opacity:1;fill-rule:evenodd;stroke:none" d="M 7,2 V 3.1015625 A 5,5 0 0 0 5.2460938,3.8320312 l -0.78125,-0.78125 -1.4140626,1.4140626 0.78125,0.78125 A 5,5 0 0 0 3.1054688,7 H 2 v 2 h 1.1015625 a 5,5 0 0 0 0.7304687,1.753906 l -0.78125,0.78125 1.4140626,1.414063 0.78125,-0.78125 A 5,5 0 0 0 7,12.894531 V 14 H 8 V 12 A 4,4 0 0 1 5.1308594,10.787109 4,4 0 0 1 4,8 4,4 0 0 1 5.2128906,5.1308594 4,4 0 0 1 8,4 4,4 0 0 1 10.869141,5.2128906 4,4 0 0 1 12,8 h 2 V 7 H 12.898438 A 5,5 0 0 0 12.167969,5.2460938 l 0.78125,-0.78125 -1.414063,-1.4140626 -0.78125,0.78125 A 5,5 0 0 0 9,3.1054688 V 2 Z" transform="translate(421.71429,531.79074)" id="path4146" inkscape:connector-curvature="0" class="ColorScheme-Text"/>
    <path style="fill:currentColor;fill-opacity:1;fill-rule:evenodd;stroke:none;stroke-width:1px;stroke-linecap:butt;stroke-linejoin:miter;stroke-opacity:1" d="m 428.71429,537.79074 v 4 l 3,-2 z" id="path4180" inkscape:connector-curvature="0" sodipodi:nodetypes="cccc" class="ColorScheme-Text"/>
    <path style="fill:currentColor;fill-opacity:1;stroke:none" d="m 433.21429,546.79032 -1.8789,-1.87891 -0.94923,-0.94922 0.70703,-0.70703 0.94922,0.94922 0.67188,0.67188 v -4.08552 h 1 v 4.08552 l 0.67187,-0.67188 0.94923,-0.94922 0.70702,0.70703 -0.94922,0.94922 z" id="rect4176" inkscape:connector-curvature="0" sodipodi:nodetypes="cccccccccccccc" class="ColorScheme-Text"/>
  </g>
</svg>

<svg xmlns="http://www.w3.org/2000/svg" viewBox="0 0 16 16">
  <defs id="defs3051">
    <style type="text/css" id="current-color-scheme">
      .ColorScheme-Text {
        color:#4d4d4d;
      }
      </style>
  </defs>
 <path 
     style="fill:currentColor;fill-opacity:1;stroke:none" 
     d="M 7 2 L 7 3.1015625 C 6.374 3.2305625 5.7790937 3.4790312 5.2460938 3.8320312 L 4.4648438 3.0507812 L 3.0507812 4.4648438 L 3.8320312 5.2460938 C 3.4800313 5.7790937 3.2334687 6.374 3.1054688 7 L 2 7 L 2 9 L 3.1015625 9 C 3.2305625 9.626 3.4790312 10.220906 3.8320312 10.753906 L 3.0507812 11.535156 L 4.4648438 12.949219 L 5.2460938 12.167969 C 5.7790938 12.519969 6.374 12.766531 7 12.894531 L 7 14 L 8 14 L 8 12 C 6.919 12 5.8838594 11.562109 5.1308594 10.787109 C 4.4058594 10.040109 4 9.041 4 8 C 4 6.919 4.4378906 5.8838594 5.2128906 5.1308594 C 5.9598906 4.4058594 6.959 4 8 4 C 9.081 4 10.116141 4.4378906 10.869141 5.2128906 C 11.594141 5.9598906 12 6.959 12 8 L 14 8 L 14 7 L 12.898438 7 C 12.769438 6.374 12.520969 5.7790937 12.167969 5.2460938 L 12.949219 4.4648438 L 11.535156 3.0507812 L 10.753906 3.8320312 C 10.220906 3.4800313 9.626 3.2334687 9 3.1054688 L 9 2 L 7 2 z M 7 6 L 7 10 L 10 8 L 7 6 z M 11 9 L 11 13.085938 L 9.3789062 11.464844 L 8.671875 12.171875 L 11.5 15 L 13.378906 13.121094 L 14.328125 12.171875 L 13.621094 11.464844 L 12 13.085938 L 12 9 L 11 9 z "
     class="ColorScheme-Text"/>
</svg>
